packages/tokens/icons/briefcase/size16Px.svg

<svg viewBox="0 0 16 16" fill="none" xmlns="http://www.w3.org/2000/svg" width="1em" height="1em"><path d="M14.5 6V12C14.5 12.8284 13.8284 13.5 13 13.5H3C2.17157 13.5 1.5 12.8284 1.5 12V6C1.5 5.17157 2.17157 4.5 3 4.5H13C13.8284 4.5 14.5 5.17157 14.5 6Z" stroke="currentColor" stroke-linecap="round"/><path d="M10.5 4.5V3.5C10.5 2.94772 10.0523 2.5 9.5 2.5H6.5C5.94772 2.5 5.5 2.94772 5.5 3.5V4.5" stroke="currentColor" stroke-linecap="round"/><path d="M1.5 7.50018L14.5 7.50018" stroke="currentColor" stroke-linecap="round"/></svg>

<svg xmlns="http://www.w3.org/2000/svg" fill="none" viewBox="0 0 16 16" width="1em" height="1em"><path stroke="currentColor" stroke-linecap="round" d="M14.5 6v6a1.5 1.5 0 0 1-1.5 1.5H3A1.5 1.5 0 0 1 1.5 12V6A1.5 1.5 0 0 1 3 4.5h10A1.5 1.5 0 0 1 14.5 6Zm-4-1.5v-1a1 1 0 0 0-1-1h-3a1 1 0 0 0-1 1v1m-4 3h13"/></svg>
